src/images/icons/youtube.svg

<?xml version="1.0" encoding="UTF-8"?>
<svg id="Layer_1" data-name="Layer 1" xmlns="http://www.w3.org/2000/svg" viewBox="0 0 176 124">
  <title>YouTube</title>
  <defs>
    <style>
      .cls-1 {
        fill: #fff;
      }
    </style>
  </defs>
  <path class="cls-1" d="m172.32,19.36c-2.02-7.62-7.99-13.62-15.56-15.66C143.04,0,88,0,88,0c0,0-55.04,0-68.76,3.7-7.57,2.04-13.54,8.04-15.56,15.66C0,33.18,0,62,0,62c0,0,0,28.82,3.68,42.64,2.02,7.62,7.99,13.62,15.56,15.66,13.73,3.7,68.76,3.7,68.76,3.7,0,0,55.04,0,68.76-3.7,7.57-2.04,13.54-8.04,15.56-15.66,3.68-13.81,3.68-42.64,3.68-42.64,0,0,0-28.82-3.68-42.64Zm-102.32,68.81v-52.34l46,26.17-46,26.17Z"/>
</svg>

<svg data-name="Layer 1" xmlns="http://www.w3.org/2000/svg" viewBox="0 0 176 124"><path d="M172.32 19.36c-2.02-7.62-7.99-13.62-15.56-15.66C143.04 0 88 0 88 0S32.96 0 19.24 3.7C11.67 5.74 5.7 11.74 3.68 19.36 0 33.18 0 62 0 62s0 28.82 3.68 42.64c2.02 7.62 7.99 13.62 15.56 15.66C32.97 124 88 124 88 124s55.04 0 68.76-3.7c7.57-2.04 13.54-8.04 15.56-15.66C176 90.83 176 62 176 62s0-28.82-3.68-42.64zM70 88.17V35.83L116 62 70 88.17z" fill="#fff"/></svg>
